X: 24531
T: Lucy's
R: reel
M: 4/4
K: Fmajor
d2cA AGGF|A2GF Ac(3ccc|d2cA AGGF|
[1 f2(3gab agfe:|2 f2(3gab agfd||
g2fg ac'(3c'c'c'|d'2c'a aggf|1 g2fg ac'(3c'c'c'|
d'ac'a g3f:|2 d'2c'a aggf|a2ba gf(3def||

